Sources/FrostedUI/Resources/Icons.xcassets/command12.imageset/command-12.svg

<svg width="12" height="12" viewBox="0 0 12 12" fill="none" xmlns="http://www.w3.org/2000/svg" data-fui-icon="true">
  <g clip-path="url(#clip0_882_1268)">
    <path
      d="M9.25 0C10.7688 0 12 1.23122 12 2.75C12 4.26878 10.7688 5.5 9.25 5.5H8V6.5H9.25C10.7688 6.5 12 7.73122 12 9.25C12 10.7688 10.7688 12 9.25 12C7.73122 12 6.5 10.7688 6.5 9.25V8H5.5V9.25C5.5 10.7688 4.26878 12 2.75 12C1.23122 12 0 10.7688 0 9.25C0 7.73122 1.23122 6.5 2.75 6.5H4V5.5H2.75C1.23122 5.5 0 4.26878 0 2.75C0 1.23122 1.23122 0 2.75 0C4.26878 0 5.5 1.23122 5.5 2.75V4H6.5V2.75C6.5 1.23122 7.73122 0 9.25 0ZM2.75 8C2.05964 8 1.5 8.55964 1.5 9.25C1.5 9.94036 2.05964 10.5 2.75 10.5C3.44036 10.5 4 9.94036 4 9.25V8H2.75ZM8 9.25C8 9.94036 8.55964 10.5 9.25 10.5C9.94036 10.5 10.5 9.94036 10.5 9.25C10.5 8.55964 9.94036 8 9.25 8H8V9.25ZM5.5 6.5H6.5V5.5H5.5V6.5ZM2.75 1.5C2.05964 1.5 1.5 2.05964 1.5 2.75C1.5 3.44036 2.05964 4 2.75 4H4V2.75C4 2.05964 3.44036 1.5 2.75 1.5ZM9.25 1.5C8.55964 1.5 8 2.05964 8 2.75V4H9.25C9.94036 4 10.5 3.44036 10.5 2.75C10.5 2.05964 9.94036 1.5 9.25 1.5Z"
      fill="currentColor"
    />
  </g>
  <defs>
    <clipPath id="clip0_882_1268"><path fill="currentColor" d="M0 0H12V12H0z" /></clipPath>
  </defs>
</svg>

<svg xmlns="http://www.w3.org/2000/svg" width="12" height="12" fill="none" data-fui-icon="true" viewBox="0 0 12 12"><g clip-path="url(#a)"><path fill="currentColor" d="M9.25 0a2.75 2.75 0 1 1 0 5.5H8v1h1.25A2.75 2.75 0 1 1 6.5 9.25V8h-1v1.25A2.75 2.75 0 1 1 2.75 6.5H4v-1H2.75A2.75 2.75 0 1 1 5.5 2.75V4h1V2.75A2.75 2.75 0 0 1 9.25 0m-6.5 8A1.25 1.25 0 1 0 4 9.25V8zM8 9.25A1.25 1.25 0 1 0 9.25 8H8zM5.5 6.5h1v-1h-1zm-2.75-5a1.25 1.25 0 1 0 0 2.5H4V2.75c0-.69-.56-1.25-1.25-1.25m6.5 0C8.56 1.5 8 2.06 8 2.75V4h1.25a1.25 1.25 0 1 0 0-2.5"/></g><defs><clipPath id="a"><path fill="currentColor" d="M0 0h12v12H0z"/></clipPath></defs></svg>
